assets/icon-price-tag.svg

<svg
  class="icon icon-accordion icon-price-tag"
  aria-hidden="true"
  focusable="false"
  xmlns="http://www.w3.org/2000/svg"
  width="20"
  height="20"
  viewBox="0 0 20 20"
>
  <path d="M1.16154 11.8423L8.09186 18.829C8.28991 19.0287 8.61108 19.0284 8.80882 18.8285L18.839 8.68572C18.9337 8.58998 18.9868 8.46032 18.9868 8.32514V1.53212C18.9868 1.25006 18.76 1.02141 18.4802 1.02141L11.387 1.02147C11.2527 1.02147 11.1238 1.07529 11.0288 1.17108L1.16151 11.1201C0.963704 11.3195 0.963715 11.6428 1.16154 11.8423ZM20 1.53212C20 0.685947 19.3196 -6.58649e-06 18.4802 0L11.387 5.82026e-05C10.9839 6.15389e-05 10.5973 0.161509 10.3123 0.448879L0.445049 10.3979C-0.148378 10.9962 -0.148346 11.9662 0.445123 12.5645L7.37544 19.5513C7.96958 20.1502 8.9331 20.1495 9.52633 19.5496L19.5565 9.40686C19.8405 9.11967 20 8.73068 20 8.32514V1.53212Z" fill-rule="evenodd"/>
  <path d="M15.9028 8.22958C14.7801 9.36148 12.9597 9.36148 11.837 8.22958C10.7142 7.09769 10.7142 5.26253 11.837 4.13064C12.9597 2.99875 14.7801 2.99875 15.9028 4.13064C17.0256 5.26253 17.0256 7.09769 15.9028 8.22958ZM12.5534 7.50734C13.2805 8.24034 14.4593 8.24034 15.1864 7.50734C15.9135 6.77433 15.9135 5.58589 15.1864 4.85289C14.4593 4.11988 13.2805 4.11988 12.5534 4.85289C11.8263 5.58589 11.8263 6.77433 12.5534 7.50734Z"/>
</svg>

<svg xmlns="http://www.w3.org/2000/svg" class="icon icon-accordion icon-price-tag" viewBox="0 0 20 20"><path fill-rule="evenodd" d="m1.162 11.842 6.93 6.987c.198.2.52.2.717 0l10.03-10.143a.5.5 0 0 0 .148-.36V1.531a.51.51 0 0 0-.507-.51h-7.093a.5.5 0 0 0-.358.15L1.162 11.12a.514.514 0 0 0 0 .722M20 1.532C20 .686 19.32 0 18.48 0h-7.093c-.403 0-.79.162-1.075.449L.445 10.398a1.54 1.54 0 0 0 0 2.167l6.93 6.986a1.51 1.51 0 0 0 2.151-.001l10.03-10.143A1.54 1.54 0 0 0 20 8.325z"/><path d="M15.903 8.23a2.86 2.86 0 0 1-4.066 0 2.915 2.915 0 0 1 0-4.1 2.86 2.86 0 0 1 4.066 0 2.915 2.915 0 0 1 0 4.1m-3.35-.723a1.85 1.85 0 0 0 2.633 0 1.89 1.89 0 0 0 0-2.654 1.85 1.85 0 0 0-2.633 0 1.89 1.89 0 0 0 0 2.654"/></svg>
